icons/white/energize.svg

<?xml version="1.0" encoding="UTF-8"?><svg id="a" xmlns="http://www.w3.org/2000/svg" viewBox="0 0 48 48"><defs><style>.b{fill:none;stroke:#fff;stroke-linecap:round;stroke-linejoin:round;}</style></defs><path class="b" d="M38.5001,5.5H9.5001c-2.2091,0-4,1.7909-4,4v29c0,2.2091,1.7909,4,4,4h29c2.2091,0,4-1.7909,4-4V9.5c0-2.2091-1.7909-4-4-4Z"/><path class="b" d="M19.3652,16.0328l15.3907-6.5328c1.1959,2.8174-.3587,5.4975-3.2076,6.7067l-15.3907,6.5328c-1.1954-2.8162.382-5.5073,3.2076-6.7067Z"/><path class="b" d="M14.6621,26.2308l15.3907-6.5328c1.1959,2.8174-.3587,5.4974-3.2076,6.7067l-15.3907,6.5328c-1.1954-2.8162.382-5.5073,3.2076-6.7067Z"/><path class="b" d="M21.1517,31.7933l15.3907-6.5328c1.1959,2.8174-.3587,5.4974-3.2076,6.7067l-15.3907,6.5328c-1.1954-2.8162.382-5.5073,3.2076-6.7067Z"/></svg>

<svg xmlns="http://www.w3.org/2000/svg" viewBox="0 0 48 48"><defs><style>.a{fill:none;stroke:#fff;stroke-linecap:round;stroke-linejoin:round;}</style></defs><path class="a" d="M40.5,5.5H7.5a2,2,0,0,0-2,2v33a2,2,0,0,0,2,2h33a2,2,0,0,0,2-2V7.5A2,2,0,0,0,40.5,5.5Z"/><path class="a" d="M19.3652,16.0328,34.7559,9.5c1.1959,2.8174-.3587,5.4975-3.2076,6.7067L16.1577,22.7394C14.9623,19.9232,16.54,17.2321,19.3652,16.0328Z"/><path class="a" d="M14.6621,26.2308,30.0527,19.698c1.196,2.8174-.3586,5.4974-3.2075,6.7067L11.4545,32.9375C10.2591,30.1212,11.8365,27.43,14.6621,26.2308Z"/><path class="a" d="M21.1517,31.7933l15.3907-6.5327c1.1959,2.8174-.3587,5.4973-3.2076,6.7066L17.9442,38.5C16.7488,35.6838,18.3262,32.9927,21.1517,31.7933Z"/></svg>
